X:489
T:Beatrice Hills 3 Handed Reel
M:4/4
L:1/8
Q:1/8=150
K:D
FA|B2 A2 AFAd|c2 BA B2 ed|cdef gece|edcB A2 FA|
B2 A2 AFAd|c2 BA B2 ed|cdef gece|e2 d2 d2|
A2|B2 AF DF A2|A2 GF G2 EF|GFED C2 E2|G2 F2 F2 A2|
B2 AF DF A2|A2 GF G2 EF|GFED C2 E2|E2 D2 D2||
